X:55
T: Spinnrdellied (Band 1), S. 164
N: P0830
O: Lothringen
S: PINCK, Louis: Verklingende Weisen, Bd 1, Metz 1928]
R: Werbung, Liebe, Standesunterschied]
M: 3/4
L: 1/8
K: A
E2 | C2E2A2 | C2E2A2 | c3Bc2 | B4
B2 | E2G2B2 | E2G2B2 | d4e2 | c4
E2 | d2c2B2 | G2F2E2 | A4
A2 | c3BA2 | B3BB2 | d2d2c2 | A4

@@@ Tune index: 7605
